X:1
T:God Holds the Key
T:George Stebbins
T:God Holds the Key
T:Public Domain
T:Public Domain
C:George Stebbins
Z:Public Domain
%%score ( 1 2 ) ( 3 4 )
L:1/8
M:6/4
K:Ab
V:1 treble 
V:2 treble 
V:3 bass 
V:4 bass 
V:1
 [Ec]2 | [Ec]4 [Ec]2 (B2 A2) [DF]2 | [CE]4 [=B,=D]2 [CE]4 [EA]2 | [EA]6 [EG]6 | %4
w: 1.~God|holds the key * of|un- known, And I|am glad;|
w: 2.~What|if to- mor- * row’s|were here With- out|its rest!|
w: 3.~The|ve- ry dim- * ness|my sight Makes me|se- cure;|
w: 4.~I|can- not read * His|ture plans; But this|I know;|
w: 5.~E-|nough! this co- * vers|my wants, And so|I rest!|
 [DB]6- [DB]4 [Ed]2 | [Ed]4 [Ed]2 (d2 c2) [EB]2 | [EA]4 [EB]2 [Ec]4 [Ae]2 | %7
w: If * o-|ther hands should * hold|key, Or if He|
w: I’d * ra-|ther He un- * locked|day; And, as the|
w: For, * grop-|ing in my * mist-|way, I feel His|
w: I * have|the smil- ing * of|face, And all the|
w: For * what|I can- not, * He|see, And in His|
 [Ae]4 [Ae]2 (e2 d2) [Ec]2 | [EB]4 [_Gc]2 [Fd]4 [DF]2 | [CA]6 [DB]6 | [CA]6- [CA]4 [CE]2 | %11
w: trust- ed it * to|I might be sad,|I might|be * sad.|
w: hours swing o- * pen,|“My will is best,|My will|is * best.”|
w: hand; I hear * Him|“My help is sure,|My help|is * sure.”|
w: ref- uge of * His|While here be- low,|while here|be- * low.|
w: care I saved * shall|For- ev- er blest,|for- ev-|er * blest.|
 [DF]6 [DE]6 | [CE]6- [CE]4 |] %13
w: ||
w: ||
w: ||
w: ||
w: ||
V:2
 x2 | x6 F4 x2 | x12 | x12 | x12 | x6 E4 x2 | x12 | x6 E4 x2 | x12 | x12 | x12 | x12 | x10 |] %13
w: |all||||the||me,||||||
w: |cares||||the||say,||||||
w: |of||||y||say,||||||
w: |fu-||||His||grace,||||||
w: |all||||can||be,||||||
V:3
 [A,,A,]2 | [A,,A,]4 [A,,A,]2 [D,A,]4 [D,A,]2 | [A,,A,]4 [A,,A,]2 [A,,A,]4 [A,,C]2 | %3
 [E,C]6 [E,B,]6 | [E,G,]6- [E,G,]4 [E,B,]2 | [E,B,]4 [E,B,]2 (B,2 E2) [D,E]2 | %6
 [C,D]4 [E,D]2 [A,E]4 [A,C]2 | [A,C]4 [A,C]2 (C2 B,2) A,2 | [E,G,]4 [A,,A,]2 [D,A,]4 [D,A,]2 | %9
 [E,A,]6 [E,G,]6 | [A,,A,]6- [A,,A,]4 [A,,A,]2 | [D,A,]6 [E,G,]6 | [A,,A,]6- [A,,A,]4 |] %13
V:4
 x2 | x12 | x12 | x12 | x12 | x6 E,4 x2 | x12 | x6 A,4 A,2 | x12 | x12 | x12 | x12 | x10 |] %13

